X: 1
T: Kynttil\"oiden syttyess\"a (When the Candles Light Up)
T: Kodin kynttil\"at (Home Candles)
C: s\"av. Joe Lyons, Sam C. Hart (1906)
C: san. Usko Hurmerinta
%D:1906
O: Finnish
R: waltz
S: https://www.kane.fi/prestashop/40423-thickbox_default/kynttiloiden-syttyessa-joe-lyons-sam-c-hart-vagabonds-kansi-g-sisasivut-g-kaytetty-nuotti.jpg
Z: 2021 John Chambers <jc:trillian.mit.edu>
M: 6/8
L: 1/8
K: G
D2G | "G"B3 G2D | "C"E3 G2c | "G"cB2- B3- | B3 B2 |\
[1 c | d3 "C"e2d | "A7"G3 F2G | "D7"A3- A3 | A3 :|\
[2 B | "D7"B3 A2B | c3 E2F | "G"G3- G3- | G2z |]
[| "G7"G2G |\
"C"c3 c2c | e3 e2e | "G"ed2- d3- | d3 B2c |\
d3 d2d | d3 e2d | "D"A3- A3- | A2z ||
"D7"D2G |\
"G"B3 G2D | "C"E3 G2c | "G"cB2- B3- | B2z B2B |\
"D7"B3 A2B | c3 E2F | "G"G3- G3- | Gz2 |]
